www/assets/icons/web_asset.svg

<svg width="24" height="24" viewBox="0 0 24 24" xmlns="http://www.w3.org/2000/svg" fill='currentColor'><path d="M19 4H5C3.89 4 3 4.9 3 6V18C3 19.1 3.89 20 5 20H19C20.1 20 21 19.1 21 18V6C21 4.9 20.11 4 19 4ZM19 18H5V8H19V18Z"/></svg>

<svg xmlns="http://www.w3.org/2000/svg" width="24" height="24" viewBox="0 0 24 24" fill='currentColor'><path d="M19 4H5a2 2 0 0 0-2 2v12a2 2 0 0 0 2 2h14c1.1 0 2-.9 2-2V6a2 2 0 0 0-2-2m0 14H5V8h14z"/></svg>
